X: 10892
Q: "Moderate."
M: 6/8
L: 1/8
K: Bb
[|\
d3 (dcd) | f3 d2z | B3 (cB)c | ^c2 dB zz |\
d2d (d^c)d | =e2e f2d | (dc)A (cB)G | (G2 B/>A/) Fzz |\
d2d (=ef)e  | (d2=e) A2z | d2d (=ef)e | (df)=e (df)_e |
d2d (dc)d | (f3 d)zz | B2B (cB)c | (^c2 d)B zz |\
d2d (de)f | f2=e _e2c | (B/F/G/A/)(B/c/) d2c | B3 z2z |\


